X:1
T:6 Mélodies
T:Venise
T:à Mr. Le Prince PONIATOWSKI
T:Charles Gounod
T:6 Mélodies
T:6. Venise
T:Alfred de Musset
T:OpenScore (CC0)
T:OpenScore (CC0)
T:OpenScore (CC0)
T:OpenScore (CC0)
T:OpenScore (CC0)
T:OpenScore (CC0)
T:OpenScore (CC0)
T:OpenScore (CC0)
C:Charles Gounod
Z:Alfred de Musset
Z:OpenScore (CC0)
%%score 1 { ( 2 6 ) | ( 3 4 5 ) }
L:1/8
Q:1/4=120
M:6/8
K:Bb
V:1 treble nm="Voice"
V:2 treble nm="Piano"
V:6 treble 
V:3 bass 
V:4 bass 
V:5 bass 
V:1
"^Allegro" z6 | z6 | z6 | z6 | z6 | z6 ||[K:Bb][K:treble] z2 z B2 B | (BAG) d2 d | e3 e z B | %9
w: ||||||Dans Ve-|ni- * * se la|rou- ge, Pas|
 B2 B B2 e | d3 d z d | d2 d (=ed) c | f3 F F F | F6- | F z z z2 z | z6 | z2 z B3 | G2 G d2 B | %18
w: un ba- teau qui|bou- ge, Pas|un pê- cheur * dans|l'eau, Pas un fal-|lot!|||La|lu- ne qui s'ef-|
 G2 G B3 | G2 G d2 B | G2 A B2 c | ^c3 c2 c | d3 d2 d | d3 d2 d | ^f3 (f{gf}=ef) | g3- g2 ^c | %26
w: fa- ce Cou-|vre son front qui|pas- se D'un nu-|age é- toi-|lé D'un nu-|age é- toi-|lé De- * *|mi _ voi-|
 d6- | d6- | d2 z z2 z | z6 | d3- d2 e | d2 z d2 e | d3- (d2 e) | d2 z d3 | d2 e f2 g | %35
w: lé!|_|||Tout _ se|tait fors les|gar- * *|des Aux|lon- gues hal- le-|
 (f2 =e) c2 d | e2 e e2 e | e6- | e2 z c3- | c3 c2 c | =B6- | B6- | B3- B z z | z6 |[K:Bb] z6 | %45
w: bar- * des Qui|veil- lent aux cré-|neaux|_ Des|_ ar- se-|naux|_||||
 z6 | z6 | z6 | z6 | z6 | z6 | z6 ||[K:Bb][K:treble] z2 z B3 | (BA) G d2 d | e3 e z B | B2 B B2 e | %56
w: |||||||Ah!|main- * te- nant plus|d'u- ne At-|tend au clair de|
 d2 d d2 d | d3 (=ed) c | f2 F F2 F | F6- | F z z z2 z | z6 | z2 z B2 A | G3 d2 B | G2 G B2 A | %65
w: lu- ne Quel- que|jeu- ne * mu-|guet L'or- eille au|guet|_||Sous la|brise a- mou-|reu- se La Va-|
 G3 d2 B | G2 A B2 c | ^c3 c2 c | d3 d z d | d2 d d2 d | ^f3 (f{gf}=ef) | g3- g2 ^c | d6- | d6- | %74
w: ni- na rê-|veu- se La Va-|ni- na rê-|veu- se Dans|son ber- ceau flot-|tant Pas- * *|se‿en  _ chan-|tant|_|
 d2 z z2 z | z2 z z2!p! d | d3- d2 e | d3- d2 e | d3- (d2 e) | d2 z d3 | d2 e f2 g | f2 =e c2 d | %82
w: |Tan-|dis _ que|pour _ la|fê- * *|te Nar-|cis- sa qui s'ap-|prê- te Met de-|
 _e3 e2 e | e6- | e2 z c3 | c3- c2 c | =B6- | =B6- | =B2- B z z x |[K:Bb] z6 | z6 | z6 | z6 | z6 | %94
w: vant son mi-|roir|_ Le|mas- * que|noir|_|||||||
 z6 | z6 |[K:Bb][K:treble] z6 | z6 || z2 z B3 | (BA) G d2 d | e3 B2 B | B3 B2 e | d2 d d2 d | %103
w: ||||Lais-|sons * la vieille hor-|loge Au pa-|lais du vieux|do- ge Lui comp-|
 d3 (=ed) c | f2 F F2 F | F6- | F z z z2 z | z6 | z2 z B2 A | G3 d2 B | G3 B2 A | G2 G d2 B | %112
w: ter de * ses|nuits Les longs en-|nuis|_||Sur sa|mer non- cha-|lan- te Ve-|ni- se l'in- do-|
 (G2 A) B2 c | ^c2 c c2 c | d3 d z d | d2 d d2 d | ^f3 (f{gf}=ef) | g3- g2 ^c | d6- | d6- | %120
w: len- * te Ve-|ni- se l'in- do-|len- te Ne|comp- te Ni ses|jours Ni _ _|ses _ a-|mours|_|
 d2 z z2 z | z6 | d3- d2 e | d3 d2 e | d3- (d2 e) | d3 d2 d | (d2 e) f2 g | (f2 =e) c2 d | %128
w: ||Car _ Ve-|nise est si|bel- * *|le Qu'u- ne|chai- * ne sur|el- * le Sem-|
 _e2 e e2 e | e6- | e3 c3 | c3- c2 c | =B6- | B6- | B3- B z z |[K:Bb] z6 | z6 | %137
w: ble‿un col- lier je-|té|_ Sur|la  _ beau-|té |_||||
[Q:1/4=115] z6[Q:1/4=110] |[Q:1/4=105] z6[Q:1/4=90] |[Q:1/4=80] z6 |] %140
w: |||
V:2
!pp! (G/^F/G/F/G/B/ d/^c/d/c/d/B/) | (G/^F/G/F/G/B/ d/^c/d/c/d/B/) | %2
 (A/^G/A/G/A/d/ f/=e/f/e/f/d/) |!>(! (B/A/G/A/B/c/ d/=e/^f/g/a/b/)!>)! |!p! g z z (D2 [G,B,]) | %5
 x6 || x2 x2 x2 | x6 | x6 | x6 | x6 | x6 | x6 | z2!<(! (F F2 F!<)! | =AGF c2 c | %15
!>(! c3{de} dcd!>)! |!p! e2) z!pp! [DBd]3 | [^CG^c]3 [DBd]3 | [^CG^c]3 [DBd]3 | [^CG^c]3 [DBd]3 | %20
 [^CG^c]3 [DBd]3 |!<(! [^CG^c]3 [GBg]3 | [Fdf]3 [FBd]3!<)! | [Fdf]3 [FBd]3 | %24
!>(! [^Fd^f]3 [FAd]3!>)! | [G^cg]3 [!courtesy!^CGAc]3 |!p! z (D[^FA]) (d2 [DF=B]) | %27
 z!<(! (D[^Fc]) (d2 [DG_B])!<)! | z (D[^FA]) (d2 [DAc]) |!>(! z (D[GB]) (d2 [D^FA])!>)! | %30
!p! z2 (B Ace) | (d2 B ABc) | (d2 B Ace) | (d2 B ABc) |"_cresc." d2 e f2 g | f2 =e c2"_dim." d | %36
!p! _e3 [E_Ac]3 | e3 [EGB]3 |!pp! e3 [E_Ac]3 | e3 [^Fc^f]3 |!ppp! (g3- g^f^e | ^f2 ^d =B2 f) | %42
 (g3- g^f^e | ^f2 ^d =B2 f) |[K:Bb] g6 | g6 |!pp! (G/^F/G/F/G/_B/ d/^c/d/c/d/B/) | %47
 (G/^F/G/F/G/B/ d/^c/d/c/d/B/) | (A/^G/A/G/A/d/ f/=e/f/e/f/d/) | (B/A/G/A/B/c/ d/=e/^f/g/a/b/) | %50
!p! g z z (D2 [G,B,]) | z6 || x2 x2 x2 | x6 | x6 | x6 | x6 | x6 | x6 | z2!<(! (F F2 F!<)! | %60
 =AGF c2 c |!>(! c3{de} dcd!>)! |!p! e2) z!pp! [DBd]3 | [^CG^c]3 [DBd]3 | [^CG^c]3 [DBd]3 | %65
 [^CG^c]3 [DBd]3 | [^CG^c]3 [DBd]3 |!<(! [^CG^c]3 [GBg]3 | [Fdf]3 [FBd]3!<)! | [Fdf]3 [FBd]3 | %70
!>(! [^Fd^f]3 [FAd]3!>)! | [G^cg]3 [^CGAc]3 |!p! z (D[^FA]) (d2 [DF=B]) | %73
 z!<(! (D[^Fc]) (d2 [DG_B])!<)! | z (D[^FA]) (d2 [DAc]) | z!>(! (D[GB]) (d2 [D^FA])!>)! | %76
!p! z2 (B Ace) | (d2 B ABc) | (d2 B Ace) | (d2 B ABc) |"_cresc." d2 e f2 g | f2 =e c2"_dim." d | %82
!p! _e3 [E_Ac]3 | e3 [EGB]3 |!pp! e3 [E_Ac]3 | e3 [^Fc^f]3 |!ppp! (g3- g^f^e | ^f2 ^d =B2 f) | %88
 (g3- g^f^e |[K:Bb] ^f2 ^d =B2 f) | g6 | g6 |!pp! (G/^F/G/F/G/_B/ d/^c/d/c/d/B/) | %93
 (G/^F/G/F/G/B/ d/^c/d/c/d/B/) | (A/^G/A/G/A/d/ f/=e/f/e/f/d/) | (B/A/G/A/B/c/ d/=e/^f/g/a/b/) | %96
!p! g z z (D2 [G,B,]) | x6 || x6 | x6 | x6 | x6 | x6 | x6 | x6 | z2!<(! (F F2 F!<)! | =AGF c2 c | %107
!>(! c3{de} dcd!>)! |!p! e2) z!pp! [DBd]3 | [^CG^c]3 [DBd]3 | [^CG^c]3 [DBd]3 | [^CG^c]3 [DBd]3 | %112
 [^CG^c]3 [DBd]3 |!<(! [^CG^c]3 [GBg]3 | [Fdf]3 [FBd]3!<)! | [Fdf]3 [FBd]3 | %116
!>(! [^Fd^f]3 [FAd]3!>)! | [G^cg]3 [^CGAc]3 |!p! z (D[^FA]) (d2 [DF=B]) | %119
 z!<(! (D[^Fc]) (d2 [DG_B])!<)! | z (D[^FA]) (d2 [DAc]) | z!>(! (D[GB]) (d2 [D^FA])!>)! | %122
!p! z2 (B Ace) | (d2 B ABc) | (d2 B Ace) | (d2 B ABc) |"_cresc." x3 f2 g | f2 =e"_dim." c2 d | %128
!p! _e3 [E_Ac]3 | e3 [EGB]3 |!pp! e3 [E_Ac]3 | e3 [^Fc^f]3 |!ppp! (g3- g^f^e | ^f2 ^d =B2 f) | %134
 (g3- g^f^e |[K:Bb] ^f2 ^d =B2 f) | g6 |"_dim." g6 | [Gg]2 z [Gdg]2 z |!ppp! [Gdg]3- [Gdg] z z |] %140
V:3
 G,,D,B, B,,D,F, | G,,D,B, B,,D,F, | D,F,A, B,,F,D | G,B,D D,^F,C | G,,D,B, z2 z | %5
 z (D,[G,B,]) (D2 [G,B,]) || z (D,[G,B,]) (D2 [G,B,]) | z ((D,[G,B,])) ((D2 [G,B,])) | %8
 z (E,[G,B,]) (E2 [G,B,]) | z (E,[G,B,]) (E2 [G,B,]) | z (D,[G,B,]) (D2 [G,B,]) | %11
 z (G,[B,D]) (=E2 [=E,B,C]) | z (F,[A,C]) (F2 [CE]) | F,,_D,_A,- A,A,D, | F,,C,=A,- A,A,C, | %15
 B,,F,_A,- A,A,B,,- | [E,,B,,]B,,G,- G,G,(B,, | [E,,B,,])B,,G,- G,G,B,,- | %18
 [E,,B,,]B,,G,- G,G,B,,- | [E,,B,,]B,,G,- G,G,B,,- | [E,,B,,]B,,G,- G,G,B,,- | %21
 [=E,,B,,]B,,G, G,-G,B,, | F,,D,B,- B,B,D, | _A,,D,B,- B,B,D, | =A,,D,A,- A,A,D, | %25
 A,,=E,A,- A,A,A,, | D,3 [=B,,D,=B,]3 | [A,,D,A,]3 [G,,D,G,]3 | [D,,D,]2 z [D,^F,A,]3 | %29
 [D,G,B,]3 [D,A,C]3 | z (D,G, ^F,2 D,) | z (D,G, ^F,2 D,) | z (D,G, ^F,2 D,) | z (D,G, ^F,2 D,) | %34
 z D,G,- G,G,D, | z G,C- CCG, | z _A,C- CCE, | z G,B,- B,B,E, | z _A,C- CCE, | z _A,C- CCE, | %40
 G,,D,=B,- B,B,D, | =B,,^F,^D- DDF, | G,,=D,=B,- B,B,D, | =B,,^F,^D- DDF, | %44
[K:Bb] G,,=D,=B,- B,B,D, | G,,D,=B,- B,B,D, | G,,D,_B, B,,D,F, | G,,D,B, B,,D,F, | D,F,A, B,,F,D | %49
 G,B,D D,^F,C | G,,D,B, z2 z | z (D,[G,B,]) (D2 [G,B,]) || z (D,[G,B,]) (D2 [G,B,]) | %53
 z (D,[G,B,]) (D2 [G,B,]) | z (E,[G,B,]) (E2 [G,B,]) | z (E,[G,B,]) (E2 [G,B,]) | %56
 z (D,[G,B,]) (D2 [G,B,]) | z (G,[B,D]) (=E2 [E,B,C]) | z (F,[A,C]) (F2 [A,C]) | %59
 F,,_D,_A,- A,A,D, | F,,C,=A,- A,A,C, | B,,F,_A,- A,A,B,,- | [E,,B,,]B,,G,- G,G,B,,- | %63
 [E,,B,,]B,,G,- G,G,B,,- | [E,,B,,]B,,G,- G,G,B,,- | [E,,B,,]B,,G,- G,G,B,,- | %66
 [E,,B,,]B,,G,- G,G,B,,- | [=E,,B,,]B,,G,- G,G,B,, | F,,D,B,- B,B,D, | _A,,D,B,- B,B,D, | %70
 =A,,D,A,- A,A,D, | A,,=E,A,- A,A,A,, | D,3 [=B,,D,=B,]3 | [A,,D,A,]3 [G,,D,G,]3 | %74
 [D,,D,]2 z [D,^F,A,]3 | [D,G,B,]3 [D,A,C]3 | z (D,G, ^F,2 D,) | z (D,G, ^F,2 D,) | %78
 z (D,G, ^F,2 D,) | z (D,G, ^F,2 D,) | z D,(G, G,)G,D, | z G,C- CCG, | z _A,C- CCE, | %83
 z G,B,- B,B,E, | z _A,C- CCE, | z _A,C- CCE, | G,,D,=B,- B,B,D, | =B,,^F,(^D D)DF, | %88
 G,,=D,=B,- B,B,D, |[K:Bb] =B,,^F,^D- DDF, | G,,=D,=B,- B,B,D, | G,,D,=B,- B,B,D, | %92
 G,,D,_B, B,,D,F, | G,,D,B, B,,D,F, | D,F,A, B,,F,D | G,B,D D,^F,C | G,,D,B, z z2 | %97
 z ((D,[G,B,])) ((D2 [G,B,])) || z (((D,[G,B,]))) (((D2 [G,B,]))) | z ((D,[G,B,])) ((D2 [G,B,])) | %100
 z (D,[G,B,]) (E2 [G,B,]) | z (E,[G,B,]) (E2 [G,B,]) | z ((D,[G,B,])) ((D2 [G,B,])) | %103
 z (G,[B,D]) (=E2 [=E,B,C]) | z (F,[A,C]) (F2 [CE]) | F,,_D,_A,- A,A,D, | F,,C,=A,- A,A,C, | %107
 B,,F,_A,- A,A,B,,- | [E,,B,,]B,,G,- G,G,B,,- | [E,,B,,]B,,G,- G,G,B,,- | [E,,B,,]B,,G,- G,G,(B,, | %111
 B,,)B,,G,- G,G,B,,- | [E,,B,,]B,,G,- G,G,B,,- | [=E,,B,,]B,,G,- G,G,B,, | F,,D,B,- B,B,D, | %115
 _A,,D,B,- B,B,D, | =A,,D,A,- A,A,D, | A,,=E,A,- A,A,A,, | D,3 [=B,,D,=B,]3 | %119
 [A,,D,A,]3 [G,,D,G,]3 | [D,,D,]2 z [D,^F,A,]3 | [D,G,B,]3 [D,A,C]3 | z (D,G, ^F,2 D,) | %123
 z (D,G, ^F,2 D,) | z (D,G, ^F,2 D,) | z (D,G, ^F,2 D,) | z D,G,- G,G,D, | z G,C- CCG, | %128
 z _A,C- CCE, | z G,B,- B,B,E, | z _A,C- CCE, | z _A,C- CCE, | G,,D,=B,- B,B,D, | =B,,^F,^D- DDF, | %134
 G,,=D,=B,- B,B,D, |[K:Bb] =B,,^F,^D- DDF, | G,,=D,=B,- B,B,D, | G,,D,=B,- B,B,D, | %138
 G,,2 z [G,,,D,,=B,,]2 z | [G,,,D,,=B,,]3- [G,,,D,,B,,] z z |] %140
V:4
 x6 | x6 | x6 | x6 | x6 | [G,,,G,,] z z z2 x || [G,,,G,,] z z z2 z | [G,,,G,,] z z z2 z | %8
 [G,,,G,,] z z z2 z | [G,,,G,,] z z z2 z | [G,,,G,,] z z z2 z | D,3 C,3 | [F,,C,]6 | x6 | x6 | x6 | %16
 x6 | x6 | x6 | x6 | x6 | x6 | x6 | x6 | x6 | x6 | x6 | x6 | x6 | x6 | G,,6 | G,,6 | G,,6 | G,,6 | %34
 G,,6 | C,6 | C,6 | _D,6 | C,6 | C,6 | x6 | x6 | x6 | x6 |[K:Bb] x6 | x6 | x6 | x6 | x6 | x6 | x6 | %51
 [G,,,G,,] z z z2 z || [G,,,G,,] z z z2 z | [G,,,G,,] z z z2 z | [G,,,G,,] z z z2 z | %55
 [G,,,G,,] z z z2 z | [G,,,G,,] z z z2 z | D,3 C,3 | [F,,C,]6 | x6 | x6 | x6 | x6 | x6 | x6 | x6 | %66
 x6 | x6 | x6 | x6 | x6 | x6 | x6 | x6 | x6 | x6 | G,,6 | G,,6 | G,,6 | G,,6 | G,,6 | C,6 | C,6 | %83
 _D,6 | C,4 x2 | C,6 | x6 | x6 | x6 |[K:Bb] x6 | x6 | x6 | x6 | x6 | x6 | x6 | x6 | %97
 [G,,,G,,] z z z2 z || [G,,,G,,] z z z2 z | [G,,,G,,] z z z2 z | [G,,,G,,] z z z2 z | %101
 [G,,,G,,] z z z2 z | [G,,,G,,] z z z2 z | D,3 C,3 | [F,,C,]6 | x6 | x6 | x6 | x6 | x6 | x6 | x6 | %112
 x6 | x6 | x6 | x6 | x6 | x6 | x6 | x6 | x6 | x6 | G,,6 | G,,6 | G,,6 | G,,6 | G,,6 | C,6 | C,6 | %129
 _D,6 | C,6 | C,6 | x6 | x6 | x6 |[K:Bb] x6 | x6 | x6 | x6 | x6 |] %140
V:5
 x6 | x6 | x6 | x6 | x6 | x5 z || x6 | x6 | x6 | x6 | x6 | G,,6 | x6 | x6 | x6 | x6 | x6 | x6 | %18
 x6 | x6 | x6 | x6 | x6 | x6 | x6 | x6 | x6 | x6 | x6 | x6 | x6 | x6 | x6 | x6 | x6 | x6 | x6 | %37
 x6 | x6 | x6 | x6 | x6 | x6 | x6 |[K:Bb] x6 | x6 | x6 | x6 | x6 | x6 | x6 | x6 || x6 | x6 | x6 | %55
 x6 | x6 | G,,6 | x6 | x6 | x6 | x6 | x6 | x6 | x6 | x6 | x6 | x6 | x6 | x6 | x6 | x6 | x6 | x6 | %74
 x6 | x6 | x6 | x6 | x6 | x6 | x6 | x6 | x6 | x6 | x6 | x6 | x6 | x6 | x6 |[K:Bb] x6 | x6 | x6 | %92
 x6 | x6 | x6 | x6 | x6 | x6 || x6 | x6 | x6 | x6 | x6 | G,,6 | x6 | x6 | x6 | x6 | x6 | x6 | x6 | %111
 x6 | x6 | x6 | x6 | x6 | x6 | x6 | x6 | x6 | x6 | x6 | x6 | x6 | x6 | x6 | x6 | x6 | x6 | x6 | %130
 x6 | x6 | x6 | x6 | x6 |[K:Bb] x6 | x6 | x6 | x6 | x6 |] %140
V:6
 x6 | x6 | x6 | x6 | x6 | x6 || x6 | x6 | x6 | x6 | x6 | x6 | x6 | x6 | x6 | x6 | x6 | x6 | x6 | %19
 x6 | x6 | x6 | x6 | x6 | x6 | x6 | x6 | x6 | x6 | x6 | x6 | x6 | x6 | x6 | x2 x [G=B]3 | %35
 x2 x [=EG]3 | x6 | x6 | x6 | x6 | z2 z G3 | z2 z ^F3 | z2 z G3 | z2 z ^F3 |[K:Bb] z2 G G3- | %45
 G z G G3 | x6 | x6 | x6 | x6 | x6 | x6 || x6 | x6 | x6 | x6 | x6 | x6 | x6 | x6 | x6 | x6 | x6 | %63
 x6 | x6 | x6 | x6 | x6 | x6 | x6 | x6 | x6 | x6 | x6 | x6 | x6 | x6 | x6 | x6 | x6 | x2 x [G=B]3 | %81
 x2 x [=EG]3 | x6 | x6 | x6 | x6 | z2 z G3 | z2 z ^F3 | z2 z G3 |[K:Bb] z2 z ^F3 | z2 G G3- | %91
 G z G G3 | x6 | x6 | x6 | x6 | x6 | x6 || x6 | x6 | x6 | x6 | x6 | x6 | x6 | x6 | x6 | x6 | x6 | %109
 x6 | x6 | x6 | x6 | x6 | x6 | x6 | x6 | x6 | x6 | x6 | x6 | x6 | x6 | x6 | x6 | x6 | d2 e [G=B]3 | %127
 x3 [=EG]3 | x6 | x6 | x6 | x6 | z2 z G3 | z2 z ^F3 | z2 z G3 |[K:Bb] z2 z ^F3 | z2 G G3- | %137
 G z G G3 | x6 | x6 |] %140

